X: 28758
T: My Kindly Sweetheart
R: reel
M: 4/4
K: Bminor
|:B2d2 cBBc|B2d2 feef|B2d2 cB Bd|cAAc fe ef:|
|:d2 fe dBAB|d2ad feef|d2 fe dBBd|cAAA feef:|

